packages/tokens/icons/pipe/size16Px.svg

<svg viewBox="0 0 16 16" fill="none" xmlns="http://www.w3.org/2000/svg" width="1em" height="1em"><path fill-rule="evenodd" clip-rule="evenodd" d="M8.5 10.5C8.5 10.2239 8.27614 10 8 10C7.72386 10 7.5 10.2239 7.5 10.5V12H3.5C3.22386 12 3 12.2239 3 12.5C3 12.7761 3.22386 13 3.5 13H8L12.5 13C12.7761 13 13 12.7761 13 12.5C13 12.2239 12.7761 12 12.5 12L8.5 12V10.5ZM3.5 14C3.22386 14 3 14.2239 3 14.5C3 14.7761 3.22386 15 3.5 15L12.5 15C12.7761 15 13 14.7761 13 14.5C13 14.2239 12.7761 14 12.5 14L3.5 14Z" fill="currentColor"/><circle cx="8" cy="6" r="4.5" stroke="currentColor"/><path fill-rule="evenodd" clip-rule="evenodd" d="M8.96613 5.74113C8.98822 5.82374 9 5.91057 9 6.00015C9 6.55244 8.55228 7.00015 8 7.00015C7.44772 7.00015 7 6.55244 7 6.00015C7 5.44787 7.44772 5.00015 8 5.00015C8.08958 5.00015 8.17641 5.01193 8.25902 5.03402L9.06066 4.23238C9.25592 4.03712 9.5725 4.03712 9.76777 4.23238C9.96303 4.42765 9.96303 4.74423 9.76777 4.93949L8.96613 5.74113Z" fill="currentColor"/></svg>

<svg xmlns="http://www.w3.org/2000/svg" fill="none" viewBox="0 0 16 16" width="1em" height="1em"><path fill="currentColor" fill-rule="evenodd" d="M8.5 10.5a.5.5 0 0 0-1 0V12h-4a.5.5 0 0 0 0 1h9a.5.5 0 0 0 0-1h-4v-1.5Zm-5 3.5a.5.5 0 0 0 0 1h9a.5.5 0 0 0 0-1h-9Z" clip-rule="evenodd"/><circle cx="8" cy="6" r="4.5" stroke="currentColor"/><path fill="currentColor" fill-rule="evenodd" d="M8.966 5.741A1.001 1.001 0 0 1 8 7.001a1 1 0 1 1 .259-1.967l.802-.802a.5.5 0 0 1 .707.707l-.802.802Z" clip-rule="evenodd"/></svg>
